X:77
T:Bed of Roses. THO5.077, The
M:2/4
L:1/8
B:Thompson's Complete Collection of 200 Favourite Dances Vol.5
F:https://www.libraryofdance.org/manuals/1780c-Thompson-Compleat-5.pdf
Z:vmp. Peter Dunk 2024
Q:1/4=120
K:A
c/d/|e>fea|fedc|BAdc|B/A/G/F/ Ec/d/|
e>fea|fedc|Bf e/d/c/B/|A3:|
A/B/|cAAA|cA c/A/c/A/|dBBB|dB d/B/d/B/|
eccc|ec e/c/e/c/|fa g/e/f/^d/|e2 E c/d/|
e>fea|fedc|BAdc|B/A/G/F/ Ec/d/|
e>fea|fedc|Bf e/d/c/B/|A2 A,2||
W:
W:Foot it and hands three round with the 2nd Lady ./.
W:The same with the 2nd Gent ./:
W:Lead down the middle and up again and cast off :/.
W:Allemand with right and left hands :/:

